assets/images/header-green-top.svg

<svg fill="none" height="644" viewBox="0 0 3024 644" width="3024" xmlns="http://www.w3.org/2000/svg"><path d="m183.146 393.654c129.797 9.317 414.887 149.074 465.299 188.672 0 0 27.805 25.425 72.423 25.018 44.619-.406 32.728-6.63 72.424-25.018 39.695-18.388 335.498-179.355 465.298-188.672s247.23-72.207 289.73-102.488c48.67-45.032 159.46-139.29 213.23-156.061 15.38-4.795 40.57-14.341 71.98-26.243 105.93-40.1365 282.54-107.05812 391.59-108.85465667.92-.01523134 1.84.00874417 2.75.07144637.91-.0627022 1.83-.08667771 2.75-.07144637 109.05 1.79653667 285.66 68.71815667 391.58 108.85465667 31.41 11.902 56.61 21.448 71.98 26.243 53.78 16.771 164.57 111.029 213.24 156.061 21.72 15.478 64.05 35.834 116.58 56.842 50.23 20.092 109.69 41.092 173.15 45.646 129.79 9.317 414.88 149.074 465.3 188.672l74.16 25.622 19.13 36.052-4648.056-.003c-10.816-292.712-4.172-645.85307 108.937-643.98965667 109.049 1.79653667 285.66 68.71815667 391.583 108.85465667 31.41 11.902 56.605 21.448 71.978 26.243 53.773 16.771 164.564 111.029 213.238 156.061 42.4932 30.281 159.9287 93.171 289.726 102.488z" fill="#687e5e"/></svg>

<svg width="3024" height="644" viewBox="0 0 3024 644" fill="none" xmlns="http://www.w3.org/2000/svg">
    <path d="M183.146 393.654C312.943 402.971 598.033 542.728 648.445 582.326C648.445 582.326 676.25 607.751 720.868 607.344C765.487 606.938 753.596 600.714 793.292 582.326C832.987 563.938 1128.79 402.971 1258.59 393.654C1388.39 384.337 1505.82 321.447 1548.32 291.166C1596.99 246.134 1707.78 151.876 1761.55 135.105C1776.93 130.31 1802.12 120.764 1833.53 108.862C1939.46 68.7255 2116.07 1.80388 2225.12 0.00734333C2226.04 -0.00788801 2226.96 0.0160875 2227.87 0.0787897C2228.78 0.0160875 2229.7 -0.00788801 2230.62 0.00734333C2339.67 1.80388 2516.28 68.7255 2622.2 108.862C2653.61 120.764 2678.81 130.31 2694.18 135.105C2747.96 151.876 2858.75 246.134 2907.42 291.166C2929.14 306.644 2971.47 327 3024 348.008C3074.23 368.1 3133.69 389.1 3197.15 393.654C3326.94 402.971 3612.03 542.728 3662.45 582.326L3736.61 607.948L3755.74 644L-892.316 643.997C-903.132 351.285 -896.488 -1.85607 -783.379 0.00734333C-674.33 1.80388 -497.719 68.7255 -391.796 108.862C-360.386 120.764 -335.191 130.31 -319.818 135.105C-266.045 151.876 -155.254 246.134 -106.58 291.166C-64.0868 321.447 53.3487 384.337 183.146 393.654Z" fill="#687E5E"/>
</svg>
